ix/setting_bold.svg

<svg viewBox="0 0 24 24" fill="none" xmlns="http://www.w3.org/2000/svg" height="1em" width="1em">
  <path d="M18.9401 5.42141L13.7701 2.43141C12.7801 1.86141 11.2301 1.86141 10.2401 2.43141L5.02008 5.44141C2.95008 6.84141 2.83008 7.05141 2.83008 9.28141V14.7114C2.83008 16.9414 2.95008 17.1614 5.06008 18.5814L10.2301 21.5714C10.7301 21.8614 11.3701 22.0014 12.0001 22.0014C12.6301 22.0014 13.2701 21.8614 13.7601 21.5714L18.9801 18.5614C21.0501 17.1614 21.1701 16.9514 21.1701 14.7214V9.28141C21.1701 7.05141 21.0501 6.84141 18.9401 5.42141ZM12.0001 15.2514C10.2101 15.2514 8.75008 13.7914 8.75008 12.0014C8.75008 10.2114 10.2101 8.75141 12.0001 8.75141C13.7901 8.75141 15.2501 10.2114 15.2501 12.0014C15.2501 13.7914 13.7901 15.2514 12.0001 15.2514Z" fill="#292D32"/>
</svg>

<svg viewBox="0 0 24 24" fill="none" xmlns="http://www.w3.org/2000/svg" height="1em" width="1em">
  <path d="m18.94 5.421-5.17-2.99c-.99-.57-2.54-.57-3.53 0l-5.22 3.01c-2.07 1.4-2.19 1.61-2.19 3.84v5.43c0 2.23.12 2.45 2.23 3.87l5.17 2.99c.5.29 1.14.43 1.77.43.63 0 1.27-.14 1.76-.43l5.22-3.01c2.07-1.4 2.19-1.61 2.19-3.84v-5.44c0-2.23-.12-2.44-2.23-3.86ZM12 15.251c-1.79 0-3.25-1.46-3.25-3.25s1.46-3.25 3.25-3.25 3.25 1.46 3.25 3.25-1.46 3.25-3.25 3.25Z" fill="#292D32"/>
</svg>
